X:13
T:Twy-light. THO5.013
M:2/4
L:1/8
B:Thompson's Complete Collection of 200 Favourite Dances Vol.5
F:https://www.libraryofdance.org/manuals/1780c-Thompson-Compleat-5.pdf
Z:vmp. Peter Dunk 2024
Q:1/4=100
K:D
ffed|ee d2|gfed|e/d/c/B/ A2|
ffef|g2f2|e/f/g/e/ dc|d2-d2:|
|:a/g/a/b/ aa|ge e2|g/f/g/a/ ge|fd D2|
d/c/d/e/ ff|f/e/f/g/ aa|g/a/b/g/ fe|d2D2:|
W:
W:Hey contrary sided ./. Then on your own sides ./:
W:Hands six quite round :/. Lead through the 3rd Couple
W:and cast up, lead through the top Couple and cast off :/:

